X: 8675
T: Crossing The Minch
R: hornpipe
M: 4/4
K: Dmajor
|:de|fA A2 f2ef|gB B2 g2ag|fA A2 f2ef|gBed dcde|
fA A2 f2ef|gB B2 g2ag|fgaf gecd|eddc d2:|
|:Ad|fA A2 fgaf|gB B2 gaag|fA A2 fgaf|gBed dcde|
fA A2 fgaf|gB B2 g2ag|fgaf gecd|eddc d2:|
|:df|fA A2 fA A2|gB B2 gB B2|fA A2 fA A2|efed dcde|
fA A2 fA A2|gB B2 gaag|fgaf gecd|eddc d2:|

